X: 182
T:Register,The. JaW.181
M:6/8
L:1/8
Q:120
S:James Winder Ms, Lancashire, 1835-41
R:Jig
O:England
A:Wyresdale,Lancashire
H:1/8
Z:vmp.Chris Partington, Aug 2004
K:G
D|G2G GAB|c2c c2B|A2A ABc|d2d d2B|!
g2g gfe|d2d def|gec BcA|G2G G2:|!
|:f|g2g gfe|d2d def|g2g gfe|d2d d2B|!
c2c edc|B2B dcB|ABc BcA|G2G G2:|]
